X: 43485
T: Yellow Tinker, The
R: reel
M: 4/4
K: Gmajor
DGGF DEFA|DGGF dBcA|DGGF DEFA|cAFA c2 BA|
DGGF DEFA|DGGF dBcA|DGGF DEFA|cAFA c4||
Bc|dG G2 dGBc|dg g2 fdcA|dG G2 dGBd|cAFA c2 Bc|
dG G2 dGBc|dg g2 fgaf|g2 de fgaf|gbag fdcA||
d2 BG (3Bcd BG|(3Bcd BG c2 BA|d2 BG (3Bcd BG|cAFA c2 Bc|
d2 BG (3Bcd BG|(3Bcd BG c2 BA|dcde f3d|cAFA c3||

